X:1
T: Clevedon Sicilian
N:
C:
S:aka "Doreen's Delight"
A:
O:
R:
M:6/8
K:C
I:speed 150
%W: A1
% voice 1 (1 lines, 35 notes)
K:C
M:6/8
L:1/16
G2 |c6 e4 c2 d2 e2 c2 A4 G2 c4 c2 e2 d2 c2 g6g4 g2 |a2 c'2 a2 g4 e2 f2 g2 f2 e4 c2 d2 e2 d2 A4 e2 d6d4 G2 |
%W: A2
% voice 1 (1 lines, 36 notes)
c6 e4 c2 d2 e2 c2 A4 G2 c4 c2 e2 d2 c2 g6g4 g2 |a2 c'2 a2 g2 f2 e2 d2 e2 c2 B2 A2 G2 c2 d2 c2 d4 d2 c6c4 B2 |
%W: B1
% voice 1 (1 lines, 33 notes)
A6 c2 B2 A2 G2 A2 G2 E4 E2 A4 B2 c2 B2 A2 e6e4 e2 |f4 e2 d2 e2 f2 e4 d2 c4 e2 d4 d2 d2 e2 ^f2 g6 _b6 |
%W: B2
% voice 1 (1 lines, 37 notes)
a4 g2 f2 g2 a2 g4 f2 e2 f2 g2 f2 g2 e2 d2 e2 c2 B2 c2 A2 G2 A2 B2 |c6 c'4 c'2 b2 a2 g2 c'4 a2 g4 e2 d2 e2 d2 c6c4 ||
